assets/svgSource/wechat.svg

<svg viewBox="0 0 24 24" xmlns="http://www.w3.org/2000/svg">
<path fill-rule="evenodd" clip-rule="evenodd" d="M9.253 4C5.145 4 2 6.788 2 9.828C2 12.868 4.715 14.629 4.715 14.629L4.273 16.302C4.25973 16.3511 4.26131 16.403 4.27753 16.4511C4.29375 16.4993 4.32389 16.5416 4.36413 16.5726C4.40437 16.6036 4.45292 16.622 4.50362 16.6255C4.55433 16.629 4.60492 16.6173 4.649 16.592L6.633 15.468C7.509 15.747 9.371 15.836 9.552 15.844C9.42697 15.4184 9.36168 14.9775 9.358 14.534C9.358 12.188 11.401 8.884 15.941 8.884C16.044 8.884 16.148 8.887 16.251 8.891C15.647 6 12.645 4 9.253 4ZM6.55 8.842C6.42909 8.84603 6.3086 8.82569 6.19571 8.7822C6.08282 8.73871 5.97983 8.67295 5.89287 8.58884C5.80591 8.50473 5.73676 8.40399 5.68953 8.29261C5.64231 8.18122 5.61797 8.06148 5.61797 7.9405C5.61797 7.81952 5.64231 7.69978 5.68953 7.58839C5.73676 7.47701 5.80591 7.37627 5.89287 7.29216C5.97983 7.20805 6.08282 7.14229 6.19571 7.0988C6.3086 7.05531 6.42909 7.03497 6.55 7.039C6.7839 7.04679 7.00561 7.14518 7.16831 7.3134C7.33101 7.48161 7.42197 7.70647 7.42197 7.9405C7.42197 8.17453 7.33101 8.39939 7.16831 8.5676C7.00561 8.73582 6.7839 8.83421 6.55 8.842V8.842ZM11.791 8.842C11.6701 8.84603 11.5496 8.82569 11.4367 8.7822C11.3238 8.73871 11.2208 8.67295 11.1339 8.58884C11.0469 8.50473 10.9778 8.40399 10.9305 8.29261C10.8833 8.18122 10.859 8.06148 10.859 7.9405C10.859 7.81952 10.8833 7.69978 10.9305 7.58839C10.9778 7.47701 11.0469 7.37627 11.1339 7.29216C11.2208 7.20805 11.3238 7.14229 11.4367 7.0988C11.5496 7.05531 11.6701 7.03497 11.791 7.039C12.0249 7.04679 12.2466 7.14518 12.4093 7.3134C12.572 7.48161 12.663 7.70647 12.663 7.9405C12.663 8.17453 12.572 8.39939 12.4093 8.5676C12.2466 8.73582 12.0249 8.83421 11.791 8.842Z" fill="currentColor"/>
<path fill-rule="evenodd" clip-rule="evenodd" d="M22 14.168C22 11.505 18.877 9.555 15.942 9.555C11.791 9.555 10.03 12.553 10.03 14.535C10.03 16.519 11.79 19.513 15.942 19.513C16.86 19.513 17.668 19.382 18.371 19.148L19.931 20.139C19.9583 20.1566 19.9902 20.1656 20.0227 20.1649C20.0551 20.1642 20.0866 20.1539 20.1131 20.1352C20.1397 20.1165 20.16 20.0903 20.1716 20.06C20.1831 20.0297 20.1854 19.9966 20.178 19.965L19.824 18.427C21.298 17.4 22 15.781 22 14.167V14.168ZM14.043 13.662C13.8317 13.662 13.6289 13.578 13.4795 13.4286C13.33 13.2791 13.246 13.0764 13.246 12.865C13.246 12.6536 13.33 12.4509 13.4795 12.3014C13.6289 12.152 13.8317 12.068 14.043 12.068C14.2544 12.068 14.4571 12.152 14.6066 12.3014C14.7561 12.4509 14.84 12.6536 14.84 12.865C14.84 13.0764 14.7561 13.2791 14.6066 13.4286C14.4571 13.578 14.2544 13.662 14.043 13.662V13.662ZM18.027 13.662C17.8157 13.662 17.6129 13.578 17.4635 13.4286C17.314 13.2791 17.23 13.0764 17.23 12.865C17.23 12.6536 17.314 12.4509 17.4635 12.3014C17.6129 12.152 17.8157 12.068 18.027 12.068C18.2384 12.068 18.4411 12.152 18.5906 12.3014C18.7401 12.4509 18.824 12.6536 18.824 12.865C18.824 13.0764 18.7401 13.2791 18.5906 13.4286C18.4411 13.578 18.2384 13.662 18.027 13.662Z" fill="currentColor"/>
</svg>

<svg viewBox="0 0 24 24" xmlns="http://www.w3.org/2000/svg"><path fill-rule="evenodd" clip-rule="evenodd" d="M9.253 4C5.145 4 2 6.788 2 9.828c0 3.04 2.715 4.801 2.715 4.801l-.442 1.673a.257.257 0 0 0 .376.29l1.984-1.124c.876.279 2.738.368 2.919.376a4.789 4.789 0 0 1-.194-1.31c0-2.346 2.043-5.65 6.583-5.65.103 0 .207.003.31.007C15.647 6 12.645 4 9.253 4ZM6.55 8.842a.902.902 0 1 1-.06-1.803.902.902 0 0 1 .06 1.803Zm5.241 0a.902.902 0 1 1-.06-1.803.902.902 0 0 1 .06 1.803Z" fill="currentColor"/><path fill-rule="evenodd" clip-rule="evenodd" d="M22 14.168c0-2.663-3.123-4.613-6.058-4.613-4.151 0-5.912 2.998-5.912 4.98 0 1.984 1.76 4.978 5.912 4.978.918 0 1.726-.131 2.429-.365l1.56.991a.163.163 0 0 0 .247-.174l-.354-1.538C21.298 17.4 22 15.781 22 14.167v.001Zm-7.957-.506a.797.797 0 1 1 0-1.594.797.797 0 0 1 0 1.594Zm3.984 0a.797.797 0 1 1 0-1.594.797.797 0 0 1 0 1.594Z" fill="currentColor"/></svg>
